X:199
T:Aboard The 'Kangaroo'
M:C|
L:1/8
K:C
G2G2 D2E2|F2E2 E2G2|c2c2 d2B2|c6 G2|
e3d  c2B2|A2FF D2B2|A2FF D2B2|c6 G2|
G2D2 D2E2|F2E2 D2G2|c2c2 d2B2|c6 GG|
e3d  c2B2|A2FF D2B2|A2FF D2B2|c8  ||
